src/assets/images/svg/RunToHealth.svg

<svg width="463" height="122" viewBox="0 0 463 122" fill="none" xmlns="http://www.w3.org/2000/svg">
<path d="M16.9286 70.6484C19.1583 67.9754 23.535 66.283 30.0588 65.5711C34.1362 65.1262 37.6011 65.1607 40.4536 65.6746C43.3062 66.1885 45.4614 66.8244 46.9194 67.5821C48.4227 68.335 49.2337 69.255 49.3523 70.3423C49.6242 72.8341 46.9942 75.6195 41.4622 78.6987C40.6459 79.2004 38.4722 80.2857 34.941 81.9546C31.4501 83.5733 29.0952 84.6784 27.8761 85.2698C25.2263 86.6134 23.4804 87.6291 22.6386 88.3169C22.6633 88.5434 22.7762 88.7374 22.9772 88.8988C23.1732 89.015 23.6333 89.2398 24.3573 89.5734C25.0764 89.8617 26.1551 90.2941 27.5933 90.8707C29.0266 91.4019 31.0155 92.1935 33.5599 93.2453C41.1431 96.3603 48.9598 99.725 57.0101 103.339C57.4022 103.571 57.9199 103.905 58.5632 104.339C59.2016 104.727 59.5529 105.216 59.6172 105.805C59.6765 106.349 59.5373 106.754 59.1996 107.02C58.8619 107.286 58.4488 107.491 57.9603 107.636C57.4768 107.827 56.9632 107.952 56.4196 108.011L55.0605 108.159C54.1544 108.258 52.1453 107.492 49.0333 105.86C45.9666 104.223 43.2895 102.796 41.002 101.579C38.7598 100.357 36.4773 99.1845 34.1544 98.0627C28.6742 95.3141 24.3846 93.6047 21.2858 92.9342L22.9839 108.496C23.0828 109.402 22.3621 109.939 20.8217 110.107L20.0742 110.189C19.1228 110.293 18.3687 109.894 17.8118 108.992C17.0194 107.611 16.4106 104.973 15.9855 101.077L14.6988 87.3954C13.9672 80.6904 13.0301 74.833 11.8874 69.8232C12.772 67.8471 14.1159 67.7692 15.9191 69.5896C16.331 70.0031 16.6674 70.356 16.9286 70.6484ZM39.9867 68.9575L35.5621 69.3716C25.3234 70.4888 19.5624 72.3094 18.2792 74.8333C17.8953 75.517 17.7578 76.3571 17.8666 77.3538C17.9704 78.3052 18.1071 79.1384 18.2768 79.8534C18.706 81.6861 19.3729 82.9657 20.2773 83.6922C20.4182 83.7227 20.6472 83.7206 20.9643 83.686C21.3267 83.6465 21.9511 83.4867 22.8374 83.2066C23.769 82.9215 24.9803 82.4685 26.4712 81.8474C28.0024 81.176 29.6144 80.4041 31.3071 79.5318C32.9998 78.6594 34.6221 77.7718 36.1739 76.869C41.0412 73.9999 43.3957 71.8404 43.2375 70.3907C43.1485 69.5752 42.0649 69.0975 39.9867 68.9575ZM63.4311 97.2748C63.352 96.55 63.1753 95.5607 62.901 94.307C62.667 93.0031 62.4207 91.5859 62.162 90.0555C61.9033 88.525 61.6875 86.967 61.5144 85.3813C61.3414 83.7957 61.3191 82.3311 61.4476 80.9876C61.7152 77.9786 62.7778 76.3728 64.6352 76.1701C65.9433 76.3941 66.8308 76.7557 67.2979 77.2548C67.8103 77.749 68.1109 78.4039 68.1999 79.2194C68.284 79.9895 68.1864 80.9858 67.9072 82.2082C66.8422 86.3128 66.4828 89.9507 66.8288 93.122C66.9425 94.164 67.1316 95.2665 67.396 96.4296C68.4521 99.3859 71.1095 100.632 75.368 100.167C77.5879 99.9247 79.6525 99.3098 81.5619 98.3221C85.2142 96.5024 87.6161 94.567 88.7675 92.516C88.9479 90.3875 88.954 88.5531 88.7859 87.0127C88.6129 85.4271 88.3917 84.0301 88.1223 82.8217C87.8982 81.6084 87.6165 80.2868 87.2771 78.8568C86.978 77.3766 86.7094 75.7555 86.4713 73.9936C87.0306 73.6575 87.5821 73.4598 88.1257 73.4005C88.7147 73.3362 89.3358 73.5665 89.989 74.0911C90.6875 74.6109 91.3296 75.664 91.9153 77.2504C92.5464 78.8319 93.0509 80.7252 93.4291 82.9303C93.8023 85.0901 94.1174 87.3478 94.3745 89.7036C94.6768 92.0545 94.9491 94.3399 95.1914 96.5598C95.4287 98.7344 95.7244 100.605 96.0787 102.17C95.5894 102.728 95.0956 103.034 94.5973 103.089C92.7851 103.286 91.2509 101.62 89.9946 98.0896C89.4601 98.6522 88.5301 99.3725 87.2048 100.251C84.3927 102.208 80.9776 103.681 76.9596 104.669C76.1993 104.844 75.3435 104.983 74.3921 105.087C73.4407 105.191 72.2204 105.141 70.7311 104.936C69.2871 104.727 67.8592 104.035 66.4473 102.86C65.0354 101.684 64.03 99.8226 63.4311 97.2748ZM124.973 84.6456C124.385 79.2544 123.658 75.3225 122.792 72.8497C123.08 72.1306 122.5 71.8501 121.05 72.0083C119.51 72.1764 117.558 72.779 115.196 73.8161C112.833 74.8533 110.924 75.8409 109.468 76.7792C105.991 78.9465 104.14 80.8905 103.915 82.6112L105.932 101.095L101.379 101.592C100.622 100.116 99.8556 95.8216 99.0795 88.7089C98.3874 82.3663 97.9915 77.6876 97.8917 74.6729C97.8373 71.6531 97.8557 69.932 97.9472 69.5094C99.041 68.6107 99.9504 68.1218 100.675 68.0427C101.808 67.9191 102.52 69.1938 102.812 71.8668C102.925 72.9087 102.969 73.9355 102.941 74.947C102.955 75.9083 102.981 76.5701 103.021 76.9326C109.772 70.7405 115.163 67.4245 119.195 66.9846C123.771 66.4853 126.779 69.8933 128.219 77.2086C128.772 79.7613 129.299 83.3255 129.798 87.9012L130.316 93.2771C130.534 95.2705 130.789 97.191 131.082 99.0386C130.659 99.3598 130.311 99.5353 130.039 99.5649C129.899 99.5345 129.597 99.4986 129.134 99.4575C128.671 99.4163 128.074 99.4126 127.345 99.4464C126.694 97.6837 126.244 95.8761 125.996 94.0235C125.744 92.1257 125.531 90.384 125.358 88.7983L124.973 84.6456ZM162.71 61.8236L156.648 62.3477C155.062 62.5207 153.244 62.8795 151.195 63.424C151.297 65.2007 151.366 67.5084 151.4 70.3469C151.536 80.4176 151.768 86.9479 152.094 89.938C152.415 92.8828 152.688 94.9618 152.912 96.1751L146.576 97.3479L145.02 63.5477L130.456 64.3117C130.094 64.3513 129.767 64.0889 129.476 63.5247C129.231 62.9555 129.081 62.4218 129.026 61.9234C128.972 61.4251 129.117 60.8592 129.46 60.2257C129.804 59.5923 130.247 59.2459 130.791 59.1866C134.113 58.9616 137.467 58.8248 140.854 58.7761C147.12 58.6425 152.428 58.3384 156.777 57.8638L160.976 57.2681C164.273 56.8166 167.518 56.0958 170.711 55.1056C171.45 55.1624 172.027 56.2456 172.44 58.3551C172.535 58.8032 172.597 59.1632 172.627 59.435C169.731 60.622 166.425 61.4182 162.71 61.8236ZM178.534 80.7953C177.95 75.4494 179.791 70.8934 184.056 67.1273C187.444 64.1445 191.691 62.0996 196.796 60.9923C197.068 60.9627 197.702 60.8935 198.699 60.7847C199.695 60.676 201.064 60.8246 202.805 61.2306C206.658 62.0938 209.44 64.0595 211.15 67.1278C211.832 68.337 212.222 69.3946 212.321 70.3007C212.415 71.1615 212.459 71.7755 212.453 72.1429C213.071 77.8059 211.406 82.5032 207.458 86.2347C203.798 89.6598 198.978 91.6986 192.998 92.3512C188.694 92.8208 185.323 92.18 182.886 90.4289C180.493 88.6728 179.043 85.4616 178.534 80.7953ZM183.401 81.9146C183.707 84.7234 184.662 86.5446 186.266 87.3782C187.478 87.9795 189.42 88.1343 192.093 87.8426C194.766 87.5509 197.099 87.09 199.094 86.4598C201.088 85.8296 202.823 84.9296 204.3 83.7599C207.461 81.2146 208.791 77.654 208.292 73.0783C207.995 70.3601 207.028 68.2193 205.391 66.6559C203.602 64.9715 201.417 64.2702 198.835 64.552C197.103 65.0619 195.35 65.5969 193.578 66.1571C191.85 66.7123 190.251 67.5975 188.779 68.8125C185.578 71.4081 183.785 75.7755 183.401 81.9146ZM223.994 69.5083C224.026 71.0635 224.198 73.2682 224.509 76.1223C224.815 78.9312 225.619 82.3047 226.92 86.2428L221.848 89.5468L217.385 71.3298C215.774 71.2763 214.922 70.8191 214.828 69.9584C214.759 69.3241 215.04 68.537 215.671 67.5972C216.347 66.6523 216.837 65.8883 217.14 65.3051C217.438 64.6766 217.573 64.0201 217.544 63.3356C217.555 62.6009 217.53 61.32 217.468 59.493C217.406 57.666 217.31 55.7283 217.178 53.6797C217.091 51.6262 216.994 49.6884 216.887 47.8663C216.825 46.0394 216.755 44.7634 216.676 44.0386C217.564 42.9331 218.222 42.2424 218.65 41.9665C219.719 41.2539 220.513 41.3964 221.035 42.3939L222.963 63.8445C234.153 62.6235 240.802 61.1645 242.909 59.4676L240.565 37.9935C240.753 37.1937 241.98 36.6702 244.245 36.423C244.743 36.3686 245.153 36.3468 245.475 36.3575C245.569 37.2182 245.735 38.5296 245.973 40.2915C246.252 42.0032 246.535 43.9665 246.822 46.1814C247.155 48.3914 247.503 50.7374 247.866 53.2192C248.223 55.6557 248.568 57.979 248.901 60.189C249.541 64.7952 250.025 68.1806 250.353 70.3453C251.264 75.7472 252.853 80.0206 255.122 83.1654C253.172 84.2034 250.974 84.8558 248.527 85.1228C245.88 80.1855 244.031 73.5337 242.98 65.1673C239.98 65.4029 237.937 65.5801 236.85 65.6987C235.762 65.8174 234.546 66.0188 233.202 66.303C230.413 66.7907 227.344 67.8592 223.994 69.5083ZM272.863 78.754C276.85 78.3189 282.655 75.8517 290.278 71.3524C290.776 71.298 291.204 71.4348 291.561 71.7626C291.912 72.0451 292.113 72.4129 292.162 72.8659C290.686 76.1443 287.483 78.9236 282.551 81.2038C277.62 83.484 272.872 84.3 268.309 83.6519C263.137 82.8868 259.77 80.389 258.208 76.1584C258.023 75.3076 257.852 74.1572 257.694 72.7075C257.536 71.2578 257.69 69.3155 258.158 66.8806C258.666 64.3954 259.71 61.9893 261.29 59.6623C262.87 57.3353 264.816 55.4267 267.129 53.9365C269.442 52.4464 271.98 51.5505 274.744 51.2489C277.372 50.9622 280.415 51.547 283.875 53.0032C285.509 53.6959 286.839 54.5364 287.863 55.5249C288.888 56.5133 289.462 57.5738 289.586 58.7064C289.62 59.0235 289.632 59.3431 289.622 59.6652C289.833 62.4386 288.686 64.3287 286.183 65.3353C285.085 65.776 283.789 66.078 282.294 66.2411L272.464 66.9012C269.202 67.2571 266.787 68.2312 265.218 69.8235C264.306 70.7024 263.729 71.9343 263.49 73.5191C265.072 77.5182 268.197 79.2631 272.863 78.754ZM282.668 56.4356C281.592 55.8195 280.493 55.4122 279.371 55.2137C278.249 55.0153 277.326 54.9556 276.601 55.0347C275.876 55.1138 274.726 55.4915 273.149 56.1678C271.567 56.7988 270.175 57.478 268.97 58.2053C266.003 59.9962 264.605 61.6844 264.778 63.2701C268.437 63.1917 271.173 63.0536 272.985 62.8559C278.014 62.3072 281.364 61.506 283.037 60.4524C284.075 59.8808 284.557 59.2551 284.483 58.5756C284.394 57.7601 283.789 57.0468 282.668 56.4356ZM322.642 66.7206C319.828 72.4372 315.658 76.2388 310.134 78.1252C308.85 78.5404 307.664 78.8073 306.577 78.926C305.535 79.0397 304.651 79.1361 303.926 79.2152C303.242 79.244 302.459 79.2148 301.579 79.1275C300.698 79.0402 299.873 78.8323 299.104 78.5036C297.324 77.7352 296.34 76.4901 296.152 74.7686C295.882 73.9729 295.692 73.0767 295.584 72.08C295.47 71.038 295.548 69.6542 295.818 67.9285C296.088 66.2028 296.706 64.3017 297.671 62.2251C298.682 60.1435 299.959 58.1934 301.503 56.3746C304.706 52.5409 308.337 49.8983 312.397 48.4468C313.59 48.0415 314.685 47.7845 315.682 47.6758C316.724 47.5621 317.66 47.5287 318.49 47.5756C321.118 47.2889 323.08 48.8856 324.377 52.3657C325.213 54.5667 325.899 57.7009 326.434 61.7683C327.01 65.7856 327.464 68.8992 327.797 71.1092C328.171 73.2689 328.683 75.2302 329.333 76.9929L325.324 77.4304C325.009 76.227 324.755 75.1545 324.56 74.213C324.366 73.2715 324.179 72.398 323.999 71.5924C323.565 69.7144 323.113 68.0904 322.642 66.7206ZM321.221 56.2171C320.934 53.5894 319.5 52.4165 316.918 52.6983C316.596 52.6876 316.276 52.6996 315.959 52.7342C312.652 53.095 309.336 55.0613 306.013 58.633C304.449 60.2706 303.155 62.0622 302.129 64.0079C300.599 66.7879 299.945 69.1973 300.168 71.236C300.459 73.9089 302.173 75.3265 305.308 75.4887C309.375 74.9531 313.069 72.6705 316.388 68.6408C317.801 66.8822 318.927 65.0173 319.766 63.0461C320.944 60.3962 321.429 58.1198 321.221 56.2171ZM330.918 50.5517C330.56 48.1152 330.232 45.9505 329.934 44.0576C329.631 42.1194 329.407 40.6998 329.263 39.7986C329.159 38.8472 328.547 36.5989 327.427 33.0537C327.775 32.4656 328.103 31.9026 328.412 31.3647C328.765 30.8218 329.304 30.5109 330.029 30.4318C331.614 30.2588 333.567 36.8076 335.886 50.0784C337.184 57.7759 338.256 65.4982 339.102 73.2452C339.329 75.3291 337.993 76.5293 335.094 76.8457L334.542 76.8371C334.285 74.4813 333.889 71.476 333.352 67.8212C332.816 64.1664 332.354 60.9848 331.967 58.2765C331.625 55.5632 331.275 52.9883 330.918 50.5517ZM353.062 68.2148L352.012 57.327C351.824 55.6054 351.505 54.1504 351.054 52.9618L340.521 54.1111L339.873 49.437L350.067 48.3247L348.153 30.792C348.245 30.3695 348.472 29.9321 348.835 29.4799C349.4 28.7764 349.887 28.4024 350.295 28.3579C350.748 28.3085 351.138 28.3118 351.465 28.3678C351.792 28.4238 352.166 28.7038 352.588 29.2079C353.639 32.1189 354.493 36.5871 355.151 42.6125C355.314 44.1076 355.543 45.5725 355.837 47.0074C357.267 46.668 358.706 46.4192 360.156 46.261C360.156 46.261 361.334 46.1325 363.69 45.8754C364.551 45.7815 365.339 45.6497 366.053 45.48L366.384 50.395L356.432 51.2059L359.33 74.6136C358.554 75.065 357.872 75.3229 357.283 75.3871C355.018 75.6343 353.611 73.2435 353.062 68.2148ZM403.482 68.3517C403.158 69.1664 402.136 69.6677 400.414 69.8555C398.738 70.0384 397.833 69.5183 397.699 68.2951C397.116 62.9492 396.602 59.2919 396.158 57.3233C395.271 52.9733 394.153 50.7114 392.805 50.5376C389.474 50.2593 386.766 50.2338 384.682 50.4613C382.644 50.6837 381.014 51.5034 379.793 52.9202C378.613 54.2867 377.818 56.4593 377.41 59.4379C377.042 62.3662 376.983 66.4526 377.235 71.6972L372.002 72.2681C371.811 69.6759 371.594 67.2699 371.352 65.05C371.11 62.8301 370.778 60.2074 370.356 57.1819C369.929 54.1111 369.45 50.771 368.919 47.1615C368.237 43.0182 367.741 39.5195 367.43 36.6654C367.113 33.7659 367.005 31.0959 367.106 28.6552C367.465 27.745 368.075 27.2429 368.936 27.149C369.978 27.0353 370.835 27.3314 371.508 28.0373C372.176 28.6979 372.565 29.3202 372.674 29.9042L373.558 41.154C374.018 45.3673 374.565 48.4937 375.201 50.5332C378.981 47.37 383.046 45.5512 387.395 45.0766C388.8 44.9233 390.307 44.8734 391.918 44.9269C395.508 46.323 397.933 47.9609 399.193 49.8406C399.805 50.8282 400.243 51.9035 400.507 53.0666C400.772 54.2297 401.008 55.5563 401.217 57.0464C402.052 62.1814 402.807 65.9498 403.482 68.3517Z" fill="black"/>
<path d="M437.393 35.5628C437.564 34.3663 437.243 33.1497 436.501 32.1807C435.758 31.2116 434.655 30.5695 433.434 30.3956" stroke="black" stroke-width="2" stroke-linecap="round" stroke-linejoin="round"/>
<path d="M418.973 32.9397C419.487 29.3502 421.435 26.115 424.389 23.9458C427.343 21.7766 431.061 20.8511 434.725 21.3729C438.389 21.8946 441.699 23.8209 443.926 26.728C446.154 29.6351 447.116 33.2848 446.603 36.8743C444.998 48.0851 437.513 56.2948 429.883 55.2082C422.252 54.1216 417.369 44.1504 418.973 32.9397Z" stroke="black" stroke-width="2" stroke-linecap="round" stroke-linejoin="round"/>
<path d="M429.882 55.2082L429.56 57.4639C429.388 58.6604 428.739 59.7387 427.754 60.4618C426.77 61.1849 425.53 61.4934 424.309 61.3195L417.402 60.3358C416.18 60.1619 414.941 60.4704 413.957 61.1935C412.972 61.9165 412.322 62.9949 412.151 64.1914" stroke="black" stroke-width="2" stroke-linecap="round" stroke-linejoin="round"/>
<path d="M461.79 43.2524C461.79 59.9661 447.766 73.5722 430.395 73.5722C413.024 73.5722 399 59.9661 399 43.2524C399 26.5388 413.024 12.9326 430.395 12.9326C447.766 12.9326 461.79 26.5388 461.79 43.2524Z" stroke="black" stroke-width="2"/>
</svg>

<svg xmlns="http://www.w3.org/2000/svg" width="463" height="122" fill="none" xmlns:v="https://vecta.io/nano"><path d="M16.929 70.648c2.23-2.673 6.606-4.365 13.13-5.077 4.077-.445 7.542-.41 10.395.103s5.008 1.15 6.466 1.907c1.503.753 2.314 1.673 2.433 2.76.272 2.492-2.358 5.277-7.89 8.356-.816.502-2.99 1.587-6.521 3.256l-7.065 3.315c-2.65 1.344-4.396 2.359-5.238 3.047a.85.85 0 0 0 .339.582c.196.116.656.341 1.38.675l3.236 1.297c1.433.531 3.422 1.323 5.967 2.375 7.583 3.115 15.4 6.48 23.45 10.094.392.232.91.566 1.553 1 .638.388.99.877 1.054 1.466.059.544-.08.949-.418 1.215s-.751.471-1.239.616a5.91 5.91 0 0 1-1.541.375l-1.359.148c-.906.099-2.915-.667-6.027-2.299l-8.031-4.281a156.78 156.78 0 0 0-6.848-3.516c-5.48-2.749-9.77-4.458-12.869-5.129l1.698 15.562c.099.906-.622 1.443-2.162 1.611l-.747.082c-.951.104-1.706-.295-2.262-1.197-.792-1.381-1.401-4.019-1.826-7.915l-1.287-13.682c-.732-6.705-1.669-12.562-2.811-17.572.885-1.976 2.229-2.054 4.032-.234.412.413.748.766 1.009 1.059zm23.058-1.691l-4.425.414c-10.239 1.117-16 2.938-17.283 5.462-.384.684-.521 1.524-.413 2.521.104.951.241 1.785.41 2.5.429 1.833 1.096 3.112 2 3.839.141.031.37.028.687-.006.362-.04.987-.199 1.873-.479.932-.285 2.143-.738 3.634-1.359 1.531-.671 3.143-1.443 4.836-2.316s3.315-1.76 4.867-2.663c4.867-2.869 7.222-5.029 7.064-6.478-.089-.816-1.173-1.293-3.251-1.433zm23.444 28.317c-.079-.725-.256-1.714-.53-2.968l-.739-4.252c-.259-1.53-.474-3.088-.648-4.674s-.195-3.05-.067-4.394c.268-3.009 1.33-4.615 3.188-4.817 1.308.224 2.196.586 2.663 1.085.512.494.813 1.149.902 1.965.084.77-.013 1.766-.293 2.989-1.065 4.105-1.424 7.742-1.078 10.914.114 1.042.303 2.144.567 3.308 1.056 2.956 3.713 4.202 7.972 3.737 2.22-.242 4.285-.857 6.194-1.845 3.652-1.82 6.054-3.755 7.206-5.806.18-2.129.186-3.963.018-5.503-.173-1.586-.394-2.983-.664-4.191-.224-1.213-.506-2.535-.845-3.965-.299-1.48-.568-3.101-.806-4.863.559-.336 1.111-.534 1.654-.593.589-.064 1.21.166 1.863.691.698.52 1.341 1.573 1.926 3.159.631 1.582 1.136 3.475 1.514 5.68.373 2.16.688 4.418.945 6.773l.817 6.856c.237 2.175.533 4.045.887 5.61-.489.558-.983.864-1.481.919-1.812.197-3.346-1.469-4.603-4.999-.535.563-1.465 1.283-2.79 2.161-2.812 1.957-6.227 3.43-10.245 4.418a22.34 22.34 0 0 1-2.567.418c-.951.104-2.172.054-3.661-.151-1.444-.209-2.872-.901-4.284-2.076s-2.417-3.037-3.016-5.585zm61.542-12.629c-.588-5.391-1.315-9.323-2.181-11.796.288-.719-.292-1-1.742-.841-1.54.168-3.492.771-5.854 1.808s-4.272 2.025-5.728 2.963c-3.477 2.167-5.328 4.111-5.553 5.832l2.017 18.484-4.553.497c-.757-1.476-1.523-5.77-2.3-12.883-.692-6.343-1.088-11.021-1.188-14.036-.054-3.02-.036-4.741.055-5.163 1.094-.899 2.003-1.388 2.728-1.467 1.133-.124 1.845 1.151 2.137 3.824.113 1.042.157 2.069.129 3.08.014.961.04 1.623.08 1.986 6.751-6.192 12.142-9.508 16.174-9.948 4.576-.499 7.584 2.909 9.024 10.224.553 2.553 1.08 6.117 1.579 10.693l.518 5.376c.218 1.993.473 3.914.766 5.761-.423.321-.771.497-1.043.526-.14-.03-.442-.066-.905-.107s-1.06-.045-1.789-.011c-.651-1.763-1.101-3.57-1.349-5.423l-.638-5.225-.385-4.153zm37.737-22.822l-6.062.524c-1.586.173-3.404.532-5.453 1.076.102 1.777.171 4.084.205 6.923.136 10.071.368 16.601.694 19.591.321 2.945.594 5.024.818 6.237l-6.336 1.173-1.556-33.8-14.564.764c-.362.04-.689-.223-.98-.787-.245-.569-.395-1.103-.45-1.601s.091-1.064.434-1.698.787-.98 1.331-1.039c3.322-.225 6.676-.362 10.063-.41 6.266-.134 11.574-.438 15.923-.912l4.199-.596c3.297-.451 6.542-1.172 9.735-2.162.739.057 1.316 1.14 1.729 3.249.095.448.157.808.187 1.08-2.896 1.187-6.202 1.983-9.917 2.389zm15.824 18.972c-.584-5.346 1.257-9.902 5.522-13.668 3.388-2.983 7.635-5.028 12.74-6.135l1.903-.208c.996-.109 2.365.04 4.106.446 3.853.863 6.635 2.829 8.345 5.897.682 1.209 1.072 2.267 1.171 3.173.094.861.138 1.475.132 1.842.618 5.663-1.047 10.36-4.995 14.092-3.66 3.425-8.48 5.464-14.46 6.117-4.304.47-7.675-.171-10.112-1.922-2.393-1.756-3.843-4.967-4.352-9.634zm4.867 1.119c.306 2.809 1.261 4.63 2.865 5.464 1.212.601 3.154.756 5.827.464s5.006-.753 7.001-1.383 3.729-1.53 5.206-2.7c3.161-2.545 4.491-6.106 3.992-10.682-.297-2.718-1.264-4.859-2.901-6.422-1.789-1.684-3.974-2.386-6.556-2.104l-5.257 1.605c-1.728.555-3.327 1.44-4.799 2.655-3.201 2.596-4.994 6.963-5.378 13.102zm40.593-12.406c.032 1.555.204 3.76.515 6.614.306 2.809 1.11 6.182 2.411 10.121l-5.072 3.304-4.463-18.217c-1.611-.053-2.463-.511-2.557-1.371-.069-.634.212-1.421.843-2.361.676-.945 1.166-1.709 1.469-2.292.298-.629.433-1.285.404-1.969.011-.735-.014-2.016-.076-3.843a191.67 191.67 0 0 0-.29-5.813l-.291-5.813c-.062-1.827-.132-3.103-.211-3.828.888-1.105 1.546-1.796 1.974-2.072 1.069-.713 1.863-.57 2.385.427l1.928 21.451c11.19-1.221 17.839-2.68 19.946-4.377l-2.344-21.474c.188-.8 1.415-1.323 3.68-1.57a8.99 8.99 0 0 1 1.23-.066 171.34 171.34 0 0 0 .498 3.934c.279 1.712.562 3.675.849 5.89l1.044 7.038 1.035 6.97 1.452 10.156c.911 5.402 2.5 9.675 4.769 12.82-1.95 1.038-4.148 1.69-6.595 1.957-2.647-4.937-4.496-11.589-5.547-19.955l-6.13.531c-1.088.119-2.304.32-3.648.604-2.789.488-5.858 1.556-9.208 3.205zm48.869 9.246c3.987-.435 9.792-2.902 17.415-7.402a1.56 1.56 0 0 1 1.283.41 1.58 1.58 0 0 1 .601 1.103c-1.476 3.278-4.679 6.058-9.611 8.338s-9.679 3.096-14.242 2.448c-5.172-.765-8.539-3.263-10.101-7.493-.185-.851-.356-2.001-.514-3.451s-.004-3.392.464-5.827c.508-2.485 1.552-4.891 3.132-7.218s3.526-4.236 5.839-5.726a17.34 17.34 0 0 1 7.615-2.688c2.628-.287 5.671.298 9.131 1.754 1.634.693 2.964 1.533 3.988 2.522s1.599 2.049 1.723 3.182a6.96 6.96 0 0 1 .036.959c.211 2.773-.936 4.663-3.439 5.67-1.098.441-2.394.743-3.889.906l-9.83.66c-3.262.356-5.677 1.33-7.246 2.922-.912.879-1.489 2.111-1.728 3.696 1.582 3.999 4.707 5.744 9.373 5.235zm9.805-22.318c-1.076-.616-2.175-1.023-3.297-1.222s-2.045-.258-2.77-.179-1.875.457-3.452 1.133c-1.582.631-2.974 1.31-4.179 2.038-2.967 1.791-4.365 3.479-4.192 5.065 3.659-.078 6.395-.216 8.207-.414 5.029-.549 8.379-1.35 10.052-2.404 1.038-.572 1.52-1.197 1.446-1.877-.089-.816-.694-1.529-1.815-2.14zm39.974 10.285c-2.814 5.717-6.984 9.518-12.508 11.405-1.284.415-2.47.682-3.557.801l-2.651.289c-.684.029-1.467 0-2.347-.088s-1.706-.295-2.475-.624c-1.78-.768-2.764-2.014-2.952-3.735-.27-.796-.46-1.692-.568-2.689-.114-1.042-.036-2.426.234-4.151s.888-3.627 1.853-5.703a27.75 27.75 0 0 1 3.832-5.85c3.203-3.834 6.834-6.476 10.894-7.928 1.193-.405 2.288-.662 3.285-.771 1.042-.114 1.978-.147 2.808-.1 2.628-.287 4.59 1.31 5.887 4.79.836 2.201 1.522 5.335 2.057 9.403l1.363 9.341c.374 2.16.886 4.121 1.536 5.884l-4.009.438c-.315-1.203-.569-2.276-.764-3.217l-.561-2.621c-.434-1.878-.886-3.502-1.357-4.872zm-1.421-10.504c-.287-2.628-1.721-3.801-4.303-3.519a6.76 6.76 0 0 0-.959.036c-3.307.361-6.623 2.327-9.946 5.899a23.89 23.89 0 0 0-3.884 5.375c-1.53 2.78-2.184 5.189-1.961 7.228.291 2.673 2.005 4.09 5.14 4.253 4.067-.536 7.761-2.818 11.08-6.848 1.413-1.759 2.539-3.623 3.378-5.595 1.178-2.65 1.663-4.926 1.455-6.829zm9.697-5.665l-.984-6.494-.671-4.259c-.104-.951-.716-3.2-1.836-6.745l.985-1.689c.353-.543.892-.854 1.617-.933 1.585-.173 3.538 6.376 5.857 19.647a401.28 401.28 0 0 1 3.216 23.167c.227 2.084-1.109 3.284-4.008 3.6l-.552-.009c-.257-2.356-.653-5.361-1.19-9.016l-1.385-9.545-1.049-7.725zm22.144 17.663l-1.05-10.888c-.188-1.722-.507-3.177-.958-4.365l-10.533 1.149-.648-4.674 10.194-1.112-1.914-17.533c.092-.423.319-.86.682-1.312.565-.704 1.052-1.078 1.46-1.122.453-.049.843-.046 1.17.01s.701.336 1.123.84c1.051 2.911 1.905 7.379 2.563 13.405a47.57 47.57 0 0 0 .686 4.395c1.43-.339 2.869-.588 4.319-.746l3.534-.386c.861-.094 1.649-.226 2.363-.395l.331 4.915-9.952.811 2.898 23.408c-.776.451-1.458.709-2.047.773-2.265.247-3.672-2.144-4.221-7.172zm50.42.137c-.324.815-1.346 1.316-3.068 1.504-1.676.183-2.581-.337-2.715-1.56-.583-5.346-1.097-9.003-1.541-10.972-.887-4.35-2.005-6.612-3.353-6.786-3.331-.278-6.039-.304-8.123-.076-2.038.222-3.668 1.042-4.889 2.459-1.18 1.367-1.975 3.539-2.383 6.518-.368 2.928-.427 7.015-.175 12.259l-5.233.571c-.191-2.592-.408-4.998-.65-7.218s-.574-4.843-.996-7.868l-1.437-10.02c-.682-4.143-1.178-7.642-1.489-10.496-.317-2.899-.425-5.569-.324-8.01.359-.91.969-1.412 1.83-1.506 1.042-.114 1.899.182 2.572.888.668.661 1.057 1.283 1.166 1.867l.884 11.25c.46 4.213 1.007 7.34 1.643 9.379 3.78-3.163 7.845-4.982 12.194-5.457a31.98 31.98 0 0 1 4.523-.15c3.59 1.396 6.015 3.034 7.275 4.914.612.988 1.05 2.063 1.314 3.226s.501 2.49.71 3.98c.835 5.135 1.59 8.903 2.265 11.305z" fill="#000"/><g stroke="#000" stroke-width="2"><g stroke-linejoin="round"><path d="M437.393 35.563a4.51 4.51 0 0 0-.892-3.382 4.7 4.7 0 0 0-3.067-1.785" stroke-linecap="round"/><path d="M418.973 32.94c.514-3.59 2.462-6.825 5.416-8.994s6.672-3.095 10.336-2.573 6.974 2.448 9.201 5.355 3.19 6.557 2.677 10.146c-1.605 11.211-9.09 19.421-16.72 18.334s-12.514-11.058-10.91-22.268z"/><path d="M429.882 55.208l-.322 2.256c-.172 1.197-.821 2.275-1.806 2.998s-2.224 1.032-3.445.858l-6.907-.984a4.7 4.7 0 0 0-3.445.858c-.985.723-1.635 1.801-1.806 2.998" stroke-linecap="round"/></g><path d="M461.79 43.252c0 16.714-14.024 30.32-31.395 30.32S399 59.966 399 43.252s14.024-30.32 31.395-30.32 31.395 13.606 31.395 30.32z"/></g></svg>
